icon-themes/sifr_svg/cmd/sc_dbsortingandgrouping.svg

<svg viewBox="0 0 16 16" xmlns="http://www.w3.org/2000/svg"><g fill="#555753"><path d="m11 1v10.683594l-.28125-.371094c-.190288-.18267-.461858-.3125-.71875-.3125h-1v.412109.587891c0 .30945.0903.55232.28125.75l1.882812 2.25h1.615235c.618354-.725151 1.169859-1.233922 1.939453-2.25.19095-.19768.28125-.44055.28125-.75v-.587891-.412109h-1c-.224022 0-.528449.12983-.71875.3125l-.28125.371094v-10.683594zm-8 1v1h3v1h-2.5c-.8284271 0-1.5.6715729-1.5 1.5s.6715729 1.5 1.5 1.5h3.5v-4c0-.5522847-.4477153-1-1-1zm.5 3h2.5v1h-2.5c-.2761424 0-.5-.2238576-.5-.5s.2238576-.5.5-.5zm-1.5 4v1h3.2929688l-3.2929688 3.292969v.707031h5v-1h-3.2929688l3.2929688-3.2929688v-.7070312h-.7070312z"/><ellipse opacity=".35"/></g></svg>

<svg xmlns="http://www.w3.org/2000/svg" viewBox="0 0 16 16">
  <path
     style="fill:#555753"
     d="M 11 1 L 11 11.683594 L 10.71875 11.3125 C 10.528462 11.12983 10.256892 11 10 11 L 9 11 L 9 11.412109 L 9 12 C 9 12.30945 9.0903 12.55232 9.28125 12.75 L 11.164062 15 L 12.779297 15 C 13.397651 14.274849 13.949156 13.766078 14.71875 12.75 C 14.9097 12.55232 15 12.30945 15 12 L 15 11.412109 L 15 11 L 14 11 C 13.775978 11 13.471551 11.12983 13.28125 11.3125 L 13 11.683594 L 13 1 L 11 1 z M 3 2 L 3 3 L 6 3 L 6 4 L 3.5 4 C 2.6715729 4 2 4.6715729 2 5.5 C 2 6.3284271 2.6715729 7 3.5 7 L 7 7 L 7 3 C 7 2.4477153 6.5522847 2 6 2 L 3 2 z M 3.5 5 L 6 5 L 6 6 L 3.5 6 C 3.2238576 6 3 5.7761424 3 5.5 C 3 5.2238576 3.2238576 5 3.5 5 z M 2 9 L 2 10 L 5.2929688 10 L 2 13.292969 L 2 14 L 7 14 L 7 13 L 3.7070312 13 L 7 9.7070312 L 7 9 L 6.2929688 9 L 2 9 z "
     />
  <ellipse
     style="opacity:0.35;fill:#555753"
     d="M 10 2 A 4 1 0 0 0 6 3 A 4 1 0 0 0 10 4 A 4 1 0 0 0 14 3 A 4 1 0 0 0 10 2 z "
     />
</svg>
